src/catppuccin-frappe-dark-cursors/wait-01.svg

<?xml version="1.0" encoding="UTF-8" standalone="no"?>
<svg
   id="svg5327"
   width="32"
   height="32"
   version="1.1"
   sodipodi:docname="wait-01.svg"
   inkscape:version="1.1.2 (0a00cf5339, 2022-02-04)"
   xmlns:inkscape="http://www.inkscape.org/namespaces/inkscape"
   xmlns:sodipodi="http://sodipodi.sourceforge.net/DTD/sodipodi-0.dtd"
   xmlns:xlink="http://www.w3.org/1999/xlink"
   xmlns="http://www.w3.org/2000/svg"
   xmlns:svg="http://www.w3.org/2000/svg">
  <sodipodi:namedview
     id="namedview11204"
     pagecolor="#ffffff"
     bordercolor="#666666"
     borderopacity="1.0"
     inkscape:pageshadow="2"
     inkscape:pageopacity="0.0"
     inkscape:pagecheckerboard="0"
     showgrid="false"
     inkscape:zoom="25.96875"
     inkscape:cx="16.019254"
     inkscape:cy="16.019254"
     inkscape:window-width="1896"
     inkscape:window-height="1020"
     inkscape:window-x="9"
     inkscape:window-y="45"
     inkscape:window-maximized="1"
     inkscape:current-layer="svg5327" />
  <defs
     id="defs5329">
    <filter
       id="filter837"
       style="color-interpolation-filters:sRGB"
       width="1.12"
       height="1.12"
       x="-.06"
       y="-.06">
      <feGaussianBlur
         id="feGaussianBlur839"
         stdDeviation=".55" />
    </filter>
    <linearGradient
       id="linearGradient832"
       x1="21"
       x2="25"
       y1="16"
       y2="28"
       gradientTransform="matrix(1.5384616,0,0,1.5384616,-20.615384,-18.615386)"
       gradientUnits="userSpaceOnUse"
       xlink:href="#linearGradient830" />
    <linearGradient
       id="linearGradient830">
      <stop
         id="stop826"
         style="stop-color:#ffffff;stop-opacity:1"
         offset="0" />
      <stop
         id="stop828"
         style="stop-color:#ffffff;stop-opacity:0"
         offset="1" />
    </linearGradient>
    <filter
       id="filter862"
       style="color-interpolation-filters:sRGB"
       width="1.12"
       height="1.12"
       x="-.06"
       y="-.06">
      <feGaussianBlur
         id="feGaussianBlur864"
         stdDeviation=".4" />
    </filter>
    <filter
       id="filter835"
       style="color-interpolation-filters:sRGB"
       width="1.1439988"
       height="1.1439984"
       x="-0.071999421"
       y="-0.071999216">
      <feGaussianBlur
         id="feGaussianBlur837"
         stdDeviation=".48" />
    </filter>
    <filter
       id="filter839"
       style="color-interpolation-filters:sRGB"
       width="1.144"
       height="1.144"
       x="-0.072000003"
       y="-0.072000003">
      <feGaussianBlur
         id="feGaussianBlur841"
         stdDeviation=".66" />
    </filter>
  </defs>
  <circle
     id="circle819"
     style="opacity:0.2;fill:#000000;fill-opacity:1;stroke:none;stroke-width:2.19999981;stroke-linecap:round;stroke-linejoin:round;stroke-miterlimit:4;stroke-dasharray:none;stroke-opacity:1;filter:url(#filter839)"
     cx="16.5"
     cy="16.5"
     r="11" />
  <circle
     id="path818"
     style="opacity:1;fill:#BABBF1;fill-opacity:1;stroke:none;stroke-width:2.19999981;stroke-linecap:round;stroke-linejoin:round;stroke-miterlimit:4;stroke-dasharray:none;stroke-opacity:1"
     cx="16"
     cy="16"
     r="11" />
  <circle
     id="circle824"
     style="opacity:1;fill:#292C3C;fill-opacity:1;stroke:none;stroke-width:1.99999988;stroke-linecap:round;stroke-linejoin:round;stroke-miterlimit:4;stroke-dasharray:none;stroke-opacity:1"
     cx="16"
     cy="16"
     r="10" />
  <path
     id="path824"
     style="opacity:0.2;fill:#292C3C;fill-opacity:1;stroke:none;stroke-width:3.63636;stroke-linecap:round;stroke-linejoin:round;stroke-miterlimit:4;stroke-dasharray:none;stroke-opacity:1"
     d="M 26,16 A 10,10 0 0 1 16,26 10,10 0 0 1 6,16 10,10 0 0 1 16,5.9999998 10,10 0 0 1 26,16 Z" />
  <path
     id="path835"
     style="color:#000000;font-style:normal;font-variant:normal;font-weight:normal;font-stretch:normal;font-size:medium;line-height:normal;font-family:sans-serif;font-variant-ligatures:normal;font-variant-position:normal;font-variant-caps:normal;font-variant-numeric:normal;font-variant-alternates:normal;font-feature-settings:normal;text-indent:0;text-align:start;text-decoration:none;text-decoration-line:none;text-decoration-style:solid;text-decoration-color:#000000;letter-spacing:normal;word-spacing:normal;text-transform:none;writing-mode:lr-tb;direction:ltr;text-orientation:mixed;dominant-baseline:auto;baseline-shift:baseline;text-anchor:start;white-space:normal;shape-padding:0;clip-rule:nonzero;display:inline;overflow:visible;visibility:visible;opacity:0.2;isolation:auto;mix-blend-mode:normal;color-interpolation:sRGB;color-interpolation-filters:linearRGB;solid-color:#000000;solid-opacity:1;vector-effect:none;fill:#BABBF1;fill-opacity:1;fill-rule:nonzero;stroke:none;stroke-width:1.0006907;stroke-linecap:round;stroke-linejoin:round;stroke-miterlimit:4;stroke-dasharray:none;stroke-dashoffset:0;stroke-opacity:1;color-rendering:auto;image-rendering:auto;shape-rendering:auto;text-rendering:auto;enable-background:accumulate;filter:url(#filter835)"
     d="M 16.164106,8.5093976 C 14.161429,8.6045476 12.254967,9.438455 10.830122,10.862913 9.201727,12.490865 8.3580856,14.732476 8.5195751,17.01721 A 0.50330224,0.49792399 0 1 0 9.5234814,16.9469 C 9.3821405,14.947223 10.115836,12.986969 11.54106,11.562132 12.966283,10.137296 14.9442,9.3885615 16.966841,9.5074445 a 0.50329313,0.49791498 0 1 0 0.05859,-0.9941406 c -0.288872,-0.016979 -0.575232,-0.017498 -0.861329,-0.00391 z m 0.353516,2.9902344 c -0.187087,9.43e-4 -0.37459,0.01266 -0.5625,0.03516 a 0.49593692,0.4979601 0 1 0 0.117188,0.988282 c 1.2033,-0.144072 2.405749,0.273482 3.265625,1.130859 0.859876,0.857377 1.281567,2.058393 1.146484,3.267578 a 0.49606359,0.49808729 0 1 0 0.984375,0.111328 c 0.168756,-1.51065 -0.357396,-3.016772 -1.431641,-4.087895 -0.939964,-0.93723 -2.209912,-1.451912 -3.519531,-1.445312 z m -4.501953,4 a 0.49606359,0.50007549 0 0 0 -0.484375,0.445312 c -0.168756,1.51667 0.357397,3.028118 1.431641,4.103516 1.074246,1.075398 2.578744,1.596721 4.082031,1.416016 a 0.49593692,0.49994779 0 1 0 -0.117188,-0.992188 c -1.2033,0.144646 -2.405749,-0.273966 -3.265625,-1.134765 -0.859877,-0.8608 -1.281567,-2.067238 -1.146484,-3.28125 a 0.49606359,0.50007549 0 0 0 -0.5,-0.556641 z m 11.964844,0 a 0.50329883,0.49890424 0 0 0 -0.503907,0.535156 c 0.141339,2.003611 -0.592365,3.968844 -2.017578,5.396485 -1.425214,1.427642 -3.403154,2.17771 -5.425781,2.058593 a 0.50328986,0.49889536 0 1 0 -0.05859,0.996094 c 2.31096,0.136098 4.568883,-0.722358 6.197266,-2.353516 1.628384,-1.631157 2.470083,-3.878736 2.308594,-6.167968 a 0.50329883,0.49890424 0 0 0 -0.500004,-0.464844 z" />
  <path
     id="path847"
     style="color:#000000;font-style:normal;font-variant:normal;font-weight:normal;font-stretch:normal;font-size:medium;line-height:normal;font-family:sans-serif;font-variant-ligatures:normal;font-variant-position:normal;font-variant-caps:normal;font-variant-numeric:normal;font-variant-alternates:normal;font-feature-settings:normal;text-indent:0;text-align:start;text-decoration:none;text-decoration-line:none;text-decoration-style:solid;text-decoration-color:#000000;letter-spacing:normal;word-spacing:normal;text-transform:none;writing-mode:lr-tb;direction:ltr;text-orientation:mixed;dominant-baseline:auto;baseline-shift:baseline;text-anchor:start;white-space:normal;shape-padding:0;clip-rule:nonzero;display:inline;overflow:visible;visibility:visible;opacity:1;isolation:auto;mix-blend-mode:normal;color-interpolation:sRGB;color-interpolation-filters:linearRGB;solid-color:#000000;solid-opacity:1;vector-effect:none;fill:#BABBF1;fill-opacity:1;fill-rule:nonzero;stroke:none;stroke-width:1.0006907;stroke-linecap:round;stroke-linejoin:round;stroke-miterlimit:4;stroke-dasharray:none;stroke-dashoffset:0;stroke-opacity:1;color-rendering:auto;image-rendering:auto;shape-rendering:auto;text-rendering:auto;enable-background:accumulate"
     d="M 15.664062 8.0097656 C 13.661385 8.1049156 11.754923 8.938823 10.330078 10.363281 C 8.7016831 11.991233 7.8580417 14.232844 8.0195312 16.517578 A 0.50330224 0.49792399 0 1 0 9.0234375 16.447266 C 8.8820966 14.447591 9.615792 12.487337 11.041016 11.0625 C 12.466239 9.6376644 14.444156 8.8889295 16.466797 9.0078125 A 0.50329313 0.49791498 0 1 0 16.525391 8.0136719 C 16.236519 7.9966929 15.950159 7.9961736 15.664062 8.0097656 z M 16.017578 11 C 15.830491 11.000943 15.642988 11.012656 15.455078 11.035156 A 0.49593692 0.4979601 0 1 0 15.572266 12.023438 C 16.775566 11.879366 17.978015 12.29692 18.837891 13.154297 C 19.697767 14.011674 20.119458 15.21269 19.984375 16.421875 A 0.49606359 0.49808729 0 1 0 20.96875 16.533203 C 21.137506 15.022557 20.611354 13.516435 19.537109 12.445312 C 18.597145 11.508082 17.327197 10.9934 16.017578 11 z M 11.515625 15 A 0.49606359 0.50007549 0 0 0 11.03125 15.445312 C 10.862494 16.961982 11.388647 18.47343 12.462891 19.548828 C 13.537137 20.624226 15.041635 21.145549 16.544922 20.964844 A 0.49593692 0.49994779 0 1 0 16.427734 19.972656 C 15.224434 20.117302 14.021985 19.69869 13.162109 18.837891 C 12.302232 17.977091 11.880542 16.770653 12.015625 15.556641 A 0.49606359 0.50007549 0 0 0 11.515625 15 z M 23.480469 15 A 0.50329883 0.49890424 0 0 0 22.976562 15.535156 C 23.117901 17.538767 22.384197 19.504 20.958984 20.931641 C 19.53377 22.359283 17.55583 23.109351 15.533203 22.990234 A 0.50328986 0.49889536 0 1 0 15.474609 23.986328 C 17.785569 24.122426 20.043492 23.26397 21.671875 21.632812 C 23.300259 20.001655 24.141958 17.754076 23.980469 15.464844 A 0.50329883 0.49890424 0 0 0 23.480469 15 z" />
</svg>

<svg xmlns="http://www.w3.org/2000/svg" width="32" height="32">
    <defs>
        <filter id="b" width="1.144" height="1.144" x="-.072" y="-.072" style="color-interpolation-filters:sRGB">
            <feGaussianBlur stdDeviation=".48"/>
        </filter>
        <filter id="a" width="1.144" height="1.144" x="-.072" y="-.072" style="color-interpolation-filters:sRGB">
            <feGaussianBlur stdDeviation=".66"/>
        </filter>
    </defs>
    <circle cx="16.5" cy="16.5" r="11" style="opacity:.2;fill:#000;fill-opacity:1;stroke:none;stroke-width:2.19999981;stroke-linecap:round;stroke-linejoin:round;stroke-miterlimit:4;stroke-dasharray:none;stroke-opacity:1;filter:url(#a)"/>
    <circle cx="16" cy="16" r="11" style="opacity:1;fill:#babbf1;fill-opacity:1;stroke:none;stroke-width:2.19999981;stroke-linecap:round;stroke-linejoin:round;stroke-miterlimit:4;stroke-dasharray:none;stroke-opacity:1"/>
    <circle cx="16" cy="16" r="10" style="opacity:1;fill:#292c3c;fill-opacity:1;stroke:none;stroke-width:1.99999988;stroke-linecap:round;stroke-linejoin:round;stroke-miterlimit:4;stroke-dasharray:none;stroke-opacity:1"/>
    <path d="M26 16a10 10 0 0 1-10 10A10 10 0 0 1 6 16 10 10 0 0 1 16 6a10 10 0 0 1 10 10" style="opacity:.2;fill:#292c3c;fill-opacity:1;stroke:none;stroke-width:3.63636;stroke-linecap:round;stroke-linejoin:round;stroke-miterlimit:4;stroke-dasharray:none;stroke-opacity:1"/>
    <path d="M16.164 8.51a8.1 8.1 0 0 0-5.334 2.353 7.9 7.9 0 0 0-2.31 6.154.503.498 0 1 0 1.003-.07c-.14-2 .593-3.96 2.018-5.385a7.1 7.1 0 0 1 5.426-2.055.503.498 0 1 0 .058-.994 8 8 0 0 0-.86-.004m.354 2.99q-.28 0-.563.035a.496.498 0 1 0 .117.988 3.96 3.96 0 0 1 3.266 1.13 3.99 3.99 0 0 1 1.146 3.269.496.498 0 1 0 .985.11 4.99 4.99 0 0 0-1.432-4.087 4.95 4.95 0 0 0-3.52-1.445m-4.502 4a.496.5 0 0 0-.485.445 5.02 5.02 0 0 0 1.432 4.103 4.94 4.94 0 0 0 4.082 1.416.496.5 0 1 0-.117-.992 3.95 3.95 0 0 1-3.266-1.134 4.01 4.01 0 0 1-1.146-3.282.496.5 0 0 0-.5-.556m11.965 0a.503.499 0 0 0-.504.535 6.94 6.94 0 0 1-2.018 5.396 7.08 7.08 0 0 1-5.426 2.059.503.499 0 1 0-.058.996 8.1 8.1 0 0 0 6.197-2.354 7.94 7.94 0 0 0 2.309-6.168.503.499 0 0 0-.5-.464" style="color:#000;font-style:normal;font-variant:normal;font-weight:400;font-stretch:normal;font-size:medium;line-height:normal;font-family:sans-serif;font-variant-ligatures:normal;font-variant-position:normal;font-variant-caps:normal;font-variant-numeric:normal;font-variant-alternates:normal;font-feature-settings:normal;text-indent:0;text-align:start;text-decoration:none;text-decoration-line:none;text-decoration-style:solid;text-decoration-color:#000;letter-spacing:normal;word-spacing:normal;text-transform:none;writing-mode:lr-tb;direction:ltr;text-orientation:mixed;dominant-baseline:auto;baseline-shift:baseline;text-anchor:start;white-space:normal;shape-padding:0;clip-rule:nonzero;display:inline;overflow:visible;visibility:visible;opacity:.2;isolation:auto;mix-blend-mode:normal;color-interpolation:sRGB;color-interpolation-filters:linearRGB;solid-color:#000;solid-opacity:1;vector-effect:none;fill:#babbf1;fill-opacity:1;fill-rule:nonzero;stroke:none;stroke-width:1.0006907;stroke-linecap:round;stroke-linejoin:round;stroke-miterlimit:4;stroke-dasharray:none;stroke-dashoffset:0;stroke-opacity:1;color-rendering:auto;image-rendering:auto;shape-rendering:auto;text-rendering:auto;enable-background:accumulate;filter:url(#b)"/>
    <path d="M15.664 8.01a8.1 8.1 0 0 0-5.334 2.353 7.9 7.9 0 0 0-2.31 6.155.503.498 0 1 0 1.003-.07c-.14-2 .593-3.96 2.018-5.385a7.1 7.1 0 0 1 5.426-2.055.503.498 0 1 0 .058-.994 8 8 0 0 0-.86-.004m.354 2.99q-.281.001-.563.035a.496.498 0 1 0 .117.988 3.96 3.96 0 0 1 3.266 1.131 3.99 3.99 0 0 1 1.146 3.268.496.498 0 1 0 .985.111 4.99 4.99 0 0 0-1.432-4.088A4.95 4.95 0 0 0 16.017 11m-4.502 4a.496.5 0 0 0-.485.445 5.02 5.02 0 0 0 1.432 4.104 4.94 4.94 0 0 0 4.082 1.416.496.5 0 1 0-.117-.992 3.95 3.95 0 0 1-3.266-1.135 4.01 4.01 0 0 1-1.146-3.281.496.5 0 0 0-.5-.557m11.964 0a.503.499 0 0 0-.503.535 6.94 6.94 0 0 1-2.018 5.397 7.08 7.08 0 0 1-5.426 2.058.503.499 0 1 0-.058.996 8.1 8.1 0 0 0 6.197-2.353 7.94 7.94 0 0 0 2.308-6.168.503.499 0 0 0-.5-.465" style="color:#000;font-style:normal;font-variant:normal;font-weight:400;font-stretch:normal;font-size:medium;line-height:normal;font-family:sans-serif;font-variant-ligatures:normal;font-variant-position:normal;font-variant-caps:normal;font-variant-numeric:normal;font-variant-alternates:normal;font-feature-settings:normal;text-indent:0;text-align:start;text-decoration:none;text-decoration-line:none;text-decoration-style:solid;text-decoration-color:#000;letter-spacing:normal;word-spacing:normal;text-transform:none;writing-mode:lr-tb;direction:ltr;text-orientation:mixed;dominant-baseline:auto;baseline-shift:baseline;text-anchor:start;white-space:normal;shape-padding:0;clip-rule:nonzero;display:inline;overflow:visible;visibility:visible;opacity:1;isolation:auto;mix-blend-mode:normal;color-interpolation:sRGB;color-interpolation-filters:linearRGB;solid-color:#000;solid-opacity:1;vector-effect:none;fill:#babbf1;fill-opacity:1;fill-rule:nonzero;stroke:none;stroke-width:1.0006907;stroke-linecap:round;stroke-linejoin:round;stroke-miterlimit:4;stroke-dasharray:none;stroke-dashoffset:0;stroke-opacity:1;color-rendering:auto;image-rendering:auto;shape-rendering:auto;text-rendering:auto;enable-background:accumulate"/>
</svg>
